public/assets/images/logo-reddit4.svg

<svg width="24" height="24" viewBox="0 0 24 24" fill="none" xmlns="http://www.w3.org/2000/svg">
<path d="M13.9286 12.9643C13.9286 13.22 14.0302 13.4653 14.211 13.6461C14.3918 13.827 14.6371 13.9286 14.8929 13.9286C15.1486 13.9286 15.3939 13.827 15.5747 13.6461C15.7555 13.4653 15.8571 13.22 15.8571 12.9643C15.8571 12.7085 15.7555 12.4633 15.5747 12.2824C15.3939 12.1016 15.1486 12 14.8929 12C14.6371 12 14.3918 12.1016 14.211 12.2824C14.0302 12.4633 13.9286 12.7085 13.9286 12.9643ZM17.7857 10.0714C17.6032 10.0713 17.4244 10.1231 17.2703 10.2208C17.1161 10.3185 16.993 10.4581 16.9152 10.6232C17.4187 11.0063 17.8366 11.4455 18.1446 11.9304C18.3529 11.8473 18.5257 11.6942 18.6333 11.4975C18.7408 11.3007 18.7764 11.0726 18.7339 10.8525C18.6914 10.6323 18.5734 10.4339 18.4004 10.2913C18.2273 10.1487 18.0099 10.071 17.7857 10.0714ZM12 0C5.37321 0 0 5.37321 0 12C0 18.6268 5.37321 24 12 24C18.6268 24 24 18.6268 24 12C24 5.37321 18.6268 0 12 0ZM18.5625 12.8009C18.6857 13.1625 18.75 13.5402 18.75 13.9286C18.75 16.5911 15.7286 18.75 12 18.75C8.27143 18.75 5.25 16.5911 5.25 13.9286C5.25 13.5402 5.31429 13.1625 5.4375 12.8009C5.0327 12.6224 4.70156 12.3102 4.49958 11.9166C4.29759 11.523 4.23705 11.072 4.32809 10.639C4.41914 10.2061 4.65623 9.81764 4.99964 9.53873C5.34305 9.25983 5.77189 9.10746 6.21429 9.10714C6.94018 9.10714 7.56964 9.50625 7.89911 10.0982C8.86875 9.56786 10.0473 9.21964 11.3304 9.13125L12.8946 5.61964C13.0098 5.35714 13.3018 5.22321 13.5777 5.30357L16.0312 6.01339C16.184 5.72971 16.4271 5.50512 16.722 5.37522C17.0168 5.24531 17.3466 5.21752 17.6591 5.29625C17.9715 5.37497 18.2487 5.55571 18.4468 5.80983C18.6449 6.06394 18.7526 6.3769 18.7527 6.69911C18.7527 7.49732 18.1045 8.14554 17.3062 8.14554C16.6768 8.14554 16.1411 7.74107 15.9429 7.17857L13.7411 6.54375L12.5893 9.12857C13.9045 9.20893 15.1125 9.55982 16.1036 10.1009C16.433 9.50893 17.0625 9.10982 17.7884 9.10982C18.8545 9.10982 19.717 9.97232 19.717 11.0384C19.7143 11.8232 19.2402 12.5009 18.5625 12.8009ZM13.9741 15.0241C13.575 15.3375 12.7875 15.675 12 15.675C11.2125 15.675 10.4223 15.3375 10.0259 15.0241C9.77678 14.8286 9.41786 14.8714 9.22232 15.1205C9.02679 15.3696 9.06964 15.7286 9.31875 15.9241C10.0071 16.4705 11.0598 16.8214 12 16.8214C12.9402 16.8214 13.9929 16.4705 14.6839 15.9241C14.933 15.7286 14.9759 15.367 14.7804 15.1205C14.6861 15.001 14.5483 14.9237 14.3972 14.9056C14.246 14.8875 14.0939 14.9301 13.9741 15.0241ZM6.21429 10.0714C5.99006 10.071 5.7727 10.1487 5.59963 10.2913C5.42656 10.4339 5.30862 10.6323 5.26611 10.8525C5.2236 11.0726 5.25919 11.3007 5.36674 11.4975C5.4743 11.6942 5.64709 11.8473 5.85536 11.9304C6.16339 11.4455 6.58125 11.0063 7.08482 10.6232C7.00704 10.4581 6.88388 10.3185 6.72972 10.2208C6.57557 10.1231 6.3968 10.0713 6.21429 10.0714ZM8.14286 12.9643C8.14286 13.22 8.24445 13.4653 8.42529 13.6461C8.60613 13.827 8.8514 13.9286 9.10714 13.9286C9.36289 13.9286 9.60816 13.827 9.789 13.6461C9.96983 13.4653 10.0714 13.22 10.0714 12.9643C10.0714 12.7085 9.96983 12.4633 9.789 12.2824C9.60816 12.1016 9.36289 12 9.10714 12C8.8514 12 8.60613 12.1016 8.42529 12.2824C8.24445 12.4633 8.14286 12.7085 8.14286 12.9643Z" fill="#C4CAE8"/>
</svg>

<svg xmlns="http://www.w3.org/2000/svg" width="24" height="24" fill="none"><path fill="#C4CAE8" d="M13.929 12.964a.964.964 0 1 0 1.928 0 .964.964 0 0 0-1.928 0Zm3.857-2.893a.962.962 0 0 0-.87.552c.503.383.92.822 1.229 1.307a.964.964 0 0 0-.36-1.859ZM12 0C5.373 0 0 5.373 0 12s5.373 12 12 12 12-5.373 12-12S18.627 0 12 0Zm6.563 12.8c.123.362.187.74.187 1.129 0 2.662-3.021 4.821-6.75 4.821s-6.75-2.159-6.75-4.821c0-.389.064-.767.188-1.128a1.929 1.929 0 1 1 2.461-2.703c.97-.53 2.148-.878 3.431-.967l1.565-3.511a.57.57 0 0 1 .683-.316l2.453.71a1.447 1.447 0 1 1 1.275 2.132c-.63 0-1.165-.405-1.363-.967l-2.202-.635-1.152 2.585c1.316.08 2.524.43 3.515.972a1.927 1.927 0 0 1 3.613.938 1.938 1.938 0 0 1-1.154 1.762Zm-4.589 2.224c-.399.314-1.187.651-1.974.651-.787 0-1.578-.338-1.974-.65a.572.572 0 1 0-.707.9c.688.546 1.74.896 2.681.896.94 0 1.993-.35 2.684-.897a.572.572 0 0 0-.287-1.018.575.575 0 0 0-.423.118Zm-7.76-4.953a.964.964 0 0 0-.359 1.86 5.096 5.096 0 0 1 1.23-1.308.962.962 0 0 0-.87-.552Zm1.929 2.893a.964.964 0 1 0 1.928 0 .964.964 0 0 0-1.928 0Z"/></svg>
